rospo-icon-theme-classic-common/64x64/places/folder-yellow-unlocked.svg

<svg height="64" width="64" xmlns="http://www.w3.org/2000/svg"><rect height="32" opacity=".2" rx="2.5" width="50" x="7" y="24"/><path d="m7 44.5c0 1.385 1.115 2.5 2.5 2.5h45c1.385 0 2.5-1.115 2.5-2.5v-27c0-1.385-1.115-2.5-2.5-2.5h-25.5v-2.5c0-1.385-1.115-2.5-2.5-2.5h-17c-1.385 0-2.5 1.115-2.5 2.5" fill="#b58f1b"/><rect height="32" opacity=".2" rx="2.5" width="50" x="7" y="22"/><rect fill="#e4e4e4" height="20" rx="2.5" width="44" x="10" y="18"/><rect fill="#e2b322" height="32" rx="2.5" width="50" x="7" y="23"/><path d="m9.5 10c-1.385 0-2.5 1.115-2.5 2.5v1c0-1.385 1.115-2.5 2.5-2.5h17c1.385 0 2.5 1.115 2.5 2.5v-1c0-1.385-1.115-2.5-2.5-2.5zm19.5 5v1h25.5c1.39 0 2.5 1.115 2.5 2.5v-1c0-1.385-1.11-2.5-2.5-2.5z" fill="#fff" opacity=".1"/><path d="m32 27c-3.32 0-6 2.6-6 6h2c0-2.2 1.78-4 4-4s4 1.8 4 4v4h-4-4-2-1c-.554 0-1 .446-1 1v10c0 .554.446 1 1 1h14c .554 0 1-.446 1-1v-10c0-.554-.446-1-1-1h-1v-4c0-3.4-2.68-6-6-6z" fill="#4f3e0c"/></svg>

<svg xmlns="http://www.w3.org/2000/svg" width="64" height="64" version="1.1">
 <rect style="opacity:0.2" width="50" height="32" x="7" y="24" rx="2.5" ry="2.5"/>
 <path style="fill:#b58f1b" d="M 7,44.5 C 7,45.885 8.115,47 9.5,47 H 54.5 C 55.885,47 57,45.885 57,44.5 V 17.5 C 57,16.115 55.885,15 54.5,15 H 29 V 12.5 C 29,11.115 27.885,10 26.5,10 H 9.5 C 8.115,10 7,11.115 7,12.5"/>
 <rect style="opacity:0.2" width="50" height="32" x="7" y="22" rx="2.5" ry="2.5"/>
 <rect style="fill:#dcdcdc" width="44" height="20" x="10" y="18" rx="2.5" ry="2.5"/>
 <rect style="fill:#e2b322" width="50" height="32" x="7" y="23" rx="2.5" ry="2.5"/>
 <path style="opacity:0.1;fill:#ffffff" d="M 9.5,10 C 8.115,10 7,11.115 7,12.5 V 13.5 C 7,12.115 8.115,11 9.5,11 H 26.5 C 27.885,11 29,12.115 29,13.5 V 12.5 C 29,11.115 27.885,10 26.5,10 Z M 29,15 V 16 H 54.5 C 55.89,16 57,17.115 57,18.5 V 17.5 C 57,16.115 55.89,15 54.5,15 Z"/>
 <path style="fill:#4f3e0c" d="M 32,27 C 28.68,27 26,29.6 26,33 H 28 C 28,30.8 29.78,29 32,29 34.22,29 36,30.8 36,33 V 37 H 32 28 26 25 C 24.446,37 24,37.446 24,38 V 48 C 24,48.554 24.446,49 25,49 H 39 C 39.554,49 40,48.554 40,48 V 38 C 40,37.446 39.554,37 39,37 H 38 V 33 C 38,29.6 35.32,27 32,27 Z"/>
</svg>
